src/img/logo.svg

<svg width="104" height="15" viewBox="0 0 104 15" fill="none" xmlns="http://www.w3.org/2000/svg">
<path d="M9.01196 11.9378H4.40052L3.5952 14.5455H0L5.11956 0.586585H8.28333L13.4412 14.5455H9.82687L9.01196 11.9378ZM5.20584 9.33969H8.20663L6.70145 4.49816L5.20584 9.33969Z" fill="#656980"/>
<path d="M25.5499 9.81905C25.5051 10.7906 25.2431 11.6502 24.7637 12.398C24.2844 13.1394 23.6101 13.7146 22.7408 14.1237C21.878 14.5328 20.8905 14.7373 19.7784 14.7373C17.944 14.7373 16.4996 14.1397 15.445 12.9445C14.3904 11.7493 13.8631 10.0619 13.8631 7.88244V7.19216C13.8631 5.82439 14.0996 4.62918 14.5725 3.60655C15.0519 2.57752 15.739 1.78498 16.6338 1.22893C17.5286 0.666478 18.564 0.385254 19.74 0.385254C21.4338 0.385254 22.7951 0.832656 23.8242 1.72746C24.8532 2.61587 25.438 3.84303 25.5786 5.40894H22.2231C22.1975 4.55888 21.9834 3.94849 21.5808 3.57779C21.1781 3.20708 20.5645 3.02173 19.74 3.02173C18.9027 3.02173 18.2892 3.33491 17.8993 3.96128C17.5094 4.58764 17.3049 5.5879 17.2857 6.96207V7.94955C17.2857 9.43876 17.4711 10.5029 17.8418 11.1421C18.2189 11.7812 18.8644 12.1008 19.7784 12.1008C20.5517 12.1008 21.143 11.9186 21.552 11.5543C21.9611 11.19 22.1784 10.6116 22.2039 9.81905H25.5499Z" fill="#656980"/>
<path d="M37.8119 3.18471H33.6223V14.5455H30.2572V3.18471H26.1443V0.586585H37.8119V3.18471Z" fill="#656980"/>
<path d="M42.826 14.5455H39.4705V0.586585H42.826V14.5455Z" fill="#656980"/>
<path d="M50.582 10.749L53.3623 0.586585H57.1205L52.4228 14.5455H48.7413L44.0819 0.586585H47.8113L50.582 10.749Z" fill="#656980"/>
<path d="M66.8035 8.63024H61.5114V11.957H67.7623V14.5455H58.1463V0.586585H67.7814V3.18471H61.5114V6.12798H66.8035V8.63024Z" fill="#656980"/>
<path d="M69.4761 14.5359V0.576998H73.148C74.65 0.576998 75.7844 0.883788 76.5514 1.49737C77.3248 2.10456 77.7115 2.98977 77.7115 4.15302C77.7115 4.99669 77.4974 5.69656 77.0691 6.25261C76.6409 6.80867 76.0369 7.1634 75.2571 7.31679C76.1392 7.43184 76.8742 7.81533 77.4622 8.46725C78.0502 9.11279 78.3442 9.8542 78.3442 10.6915C78.3442 11.8803 77.9575 12.8198 77.1842 13.5101C76.4172 14.194 75.3466 14.5359 73.9725 14.5359H69.4761ZM69.9938 7.64276V14.0182H74.03C75.2124 14.0182 76.1392 13.7274 76.8103 13.1458C77.4878 12.5578 77.8265 11.7461 77.8265 10.7107C77.8265 9.82864 77.5006 9.1032 76.8486 8.53436C76.1967 7.95913 75.3243 7.66193 74.2313 7.64276H69.9938ZM69.9938 7.12505H73.3397C74.6116 7.12505 75.5703 6.88217 76.2159 6.39642C76.8614 5.90428 77.1842 5.1437 77.1842 4.11467C77.1842 2.13332 75.8771 1.12666 73.263 1.09471H69.9938V7.12505Z" fill="white"/>
<path d="M91.2102 8.60147C91.2102 9.80946 90.9929 10.88 90.5583 11.8132C90.1301 12.7399 89.5165 13.459 88.7176 13.9703C87.9186 14.4752 86.9983 14.7277 85.9565 14.7277C84.3842 14.7277 83.1123 14.1684 82.1408 13.0499C81.1692 11.9314 80.6835 10.423 80.6835 8.52478V6.51147C80.6835 5.30987 80.8976 4.2425 81.3258 3.30935C81.7605 2.37619 82.3772 1.65715 83.1762 1.15223C83.9815 0.640912 84.9019 0.385254 85.9373 0.385254C86.9791 0.385254 87.8995 0.640912 88.6984 1.15223C89.5037 1.65715 90.1237 2.37939 90.5583 3.31893C90.9929 4.25209 91.2102 5.31627 91.2102 6.51147V8.60147ZM90.6925 6.49229C90.6925 4.80495 90.2643 3.45315 89.4078 2.43691C88.5514 1.41428 87.3945 0.902962 85.9373 0.902962C84.4992 0.902962 83.3519 1.41108 82.4955 2.42733C81.639 3.43718 81.2108 4.81454 81.2108 6.5594V8.60147C81.2108 9.71359 81.4025 10.6979 81.786 11.5543C82.1759 12.4044 82.7288 13.0595 83.4446 13.5197C84.1605 13.9799 84.9977 14.21 85.9565 14.21C87.4137 14.21 88.5674 13.7019 89.4174 12.6856C90.2675 11.6694 90.6925 10.2824 90.6925 8.52478V6.49229Z" fill="white"/>
<path d="M98.1322 7.01L102.638 0.576998H103.29L98.4581 7.41266L103.472 14.5359H102.83L98.1322 7.81533L93.4153 14.5359H92.7921L97.8062 7.41266L92.9743 0.576998H93.6262L98.1322 7.01Z" fill="white"/>
</svg>

<svg width="104" height="15" fill="none" xmlns="http://www.w3.org/2000/svg">
  <path d="M9.01 11.94h-4.6l-.81 2.6H0L5.12.6h3.16l5.16 13.96H9.83L9 11.94Zm-3.8-2.6h3L6.7 4.5 5.2 9.34Zm20.34.48a4.75 4.75 0 0 1-2.8 4.3c-.87.41-1.86.62-2.97.62-1.84 0-3.28-.6-4.34-1.8-1.05-1.2-1.58-2.88-1.58-5.06V7.2c0-1.37.24-2.56.71-3.58A5.4 5.4 0 0 1 19.74.39a6 6 0 0 1 4.08 1.34 5.27 5.27 0 0 1 1.76 3.68h-3.36c-.02-.85-.24-1.46-.64-1.83-.4-.37-1.02-.56-1.84-.56-.84 0-1.45.31-1.84.94-.4.63-.6 1.63-.61 3v.99c0 1.49.18 2.55.55 3.2.38.63 1.02.95 1.94.95.77 0 1.36-.18 1.77-.55.41-.36.63-.94.65-1.73h3.35Zm12.26-6.64h-4.19v11.37h-3.36V3.18h-4.12V.58h11.67v2.6Zm5.02 11.37h-3.36V.59h3.36v13.96Zm7.75-3.8L53.36.59h3.76l-4.7 13.96h-3.68L44.08.59h3.73l2.77 10.16ZM66.8 8.63h-5.29v3.33h6.25v2.59h-9.61V.59h9.63v2.6h-6.27v2.94h5.3v2.5Z" fill="#656980"/>
  <path d="M69.48 14.54V.58h3.67c1.5 0 2.63.3 3.4.92.77.6 1.16 1.49 1.16 2.65a3.3 3.3 0 0 1-.64 2.1 2.9 2.9 0 0 1-1.81 1.07c.88.11 1.61.5 2.2 1.15.59.64.88 1.38.88 2.22 0 1.19-.38 2.13-1.16 2.82a4.66 4.66 0 0 1-3.2 1.03h-4.5Zm.51-6.9v6.38h4.04c1.18 0 2.1-.3 2.78-.87a3.05 3.05 0 0 0 1.02-2.44c0-.88-.33-1.6-.98-2.18a3.92 3.92 0 0 0-2.62-.89H70Zm0-.51h3.35c1.27 0 2.23-.25 2.88-.73.64-.5.96-1.26.96-2.29 0-1.98-1.3-2.98-3.92-3.02H70v6.04ZM91.21 8.6a7.6 7.6 0 0 1-.65 3.21 4.96 4.96 0 0 1-1.84 2.16c-.8.5-1.72.76-2.76.76a4.81 4.81 0 0 1-3.82-1.68 6.68 6.68 0 0 1-1.46-4.53v-2c0-1.21.22-2.28.65-3.21a4.95 4.95 0 0 1 4.6-2.92 4.92 4.92 0 0 1 4.62 2.93c.44.93.66 2 .66 3.2V8.6Zm-.52-2.1a6.1 6.1 0 0 0-1.28-4.06A4.3 4.3 0 0 0 85.94.9c-1.44 0-2.59.51-3.44 1.53a6.18 6.18 0 0 0-1.29 4.13V8.6c0 1.11.2 2.1.58 2.95.39.85.94 1.5 1.65 1.97.72.46 1.56.69 2.52.69 1.45 0 2.6-.5 3.46-1.52.85-1.02 1.27-2.4 1.27-4.17V6.5Zm7.44.51 4.5-6.43h.66L98.46 7.4l5.01 7.13h-.64l-4.7-6.72-4.71 6.72h-.63l5.02-7.13L92.97.58h.66L98.13 7Z" fill="#fff"/>
</svg>
